app/images/google_badge.svg

<svg width="145" height="48" viewBox="0 0 145 48" fill="none" xmlns="http://www.w3.org/2000/svg">
<rect x="0.5" y="0.5" width="144" height="47" rx="7.5" fill="#F8F8F8"/>
<path d="M74.5721 27.4157C72.3546 27.4157 70.5428 29.0975 70.5428 31.4087C70.5428 33.7105 72.3546 35.4016 74.5721 35.4016C76.7896 35.4016 78.6013 33.7105 78.6013 31.4087C78.6013 29.0975 76.7896 27.4157 74.5721 27.4157ZM74.5721 33.8326C73.3548 33.8326 72.3074 32.8368 72.3074 31.4087C72.3074 29.9712 73.3548 28.9847 74.5721 28.9847C75.7893 28.9847 76.8368 29.9712 76.8368 31.4087C76.8368 32.8368 75.7893 33.8326 74.5721 33.8326ZM65.7775 27.4157C63.56 27.4157 61.7483 29.0975 61.7483 31.4087C61.7483 33.7105 63.56 35.4016 65.7775 35.4016C67.995 35.4016 69.8068 33.7105 69.8068 31.4087C69.8068 29.0975 68.0045 27.4157 65.7775 27.4157ZM65.7775 33.8326C64.5603 33.8326 63.5129 32.8368 63.5129 31.4087C63.5129 29.9712 64.5603 28.9847 65.7775 28.9847C66.9948 28.9847 68.0422 29.9712 68.0422 31.4087C68.0422 32.8368 66.9948 33.8326 65.7775 33.8326ZM55.3222 28.6465V30.3376H59.3987C59.276 31.2866 58.9552 31.9912 58.4739 32.4703C57.8795 33.0622 56.9547 33.7105 55.3317 33.7105C52.8217 33.7105 50.8589 31.6999 50.8589 29.2008C50.8589 26.7017 52.8217 24.6911 55.3317 24.6911C56.6811 24.6911 57.6719 25.2173 58.3984 25.9031L59.5968 24.7099C58.5777 23.7422 57.2284 23 55.3222 23C51.8875 23 49 25.781 49 29.2102C49 32.6301 51.8875 35.4204 55.3222 35.4204C57.1812 35.4204 58.5777 34.8191 59.6723 33.6823C60.7952 32.5643 61.1444 30.9859 61.1444 29.7176C61.1444 29.323 61.1161 28.9565 61.05 28.6559H55.3222V28.6465ZM98.0776 29.9618C97.7473 29.0693 96.7282 27.4157 94.6428 27.4157C92.5763 27.4157 90.8589 29.0317 90.8589 31.4087C90.8589 33.6447 92.5574 35.4016 94.841 35.4016C96.6811 35.4016 97.7473 34.2836 98.1814 33.6353L96.8132 32.724C96.3602 33.3911 95.7374 33.8326 94.841 33.8326C93.9446 33.8326 93.3029 33.4287 92.8971 32.6207L98.2663 30.4128L98.0776 29.9618ZM92.6046 31.2959C92.5574 29.7551 93.803 28.9659 94.6995 28.9659C95.3977 28.9659 95.9922 29.3136 96.1904 29.8115L92.6046 31.2959ZM88.2451 35.1668H90.0097V23.4228H88.2451V35.1668ZM85.3576 28.3083H85.301C84.9047 27.8385 84.1498 27.4157 83.1873 27.4157C81.1774 27.4157 79.3373 29.1726 79.3373 31.4275C79.3373 33.6635 81.1774 35.411 83.1873 35.411C84.1404 35.411 84.9047 34.9883 85.301 34.4997H85.3576V35.0728C85.3576 36.6042 84.5367 37.4216 83.2156 37.4216C82.1399 37.4216 81.4699 36.6512 81.1963 36.0029L79.6582 36.6418C80.1017 37.7035 81.2718 39 83.2156 39C85.2821 39 87.0278 37.788 87.0278 34.8379V27.66H85.3576V28.3083ZM83.3383 33.8326C82.121 33.8326 81.1019 32.818 81.1019 31.4275C81.1019 30.0182 82.121 28.9941 83.3383 28.9941C84.5367 28.9941 85.4803 30.0276 85.4803 31.4275C85.4803 32.818 84.5367 33.8326 83.3383 33.8326ZM106.344 23.4228H102.126V35.1668H103.89V30.7134H106.353C108.306 30.7134 110.222 29.3042 110.222 27.0681C110.222 24.8321 108.288 23.4228 106.344 23.4228ZM106.381 29.0787H103.881V25.0482H106.381C107.703 25.0482 108.448 26.138 108.448 27.0587C108.448 27.9794 107.703 29.0787 106.381 29.0787ZM117.271 27.3969C115.997 27.3969 114.676 27.9607 114.129 29.1914L115.695 29.8397C116.025 29.1914 116.648 28.9753 117.299 28.9753C118.205 28.9753 119.139 29.5203 119.149 30.488V30.6101C118.828 30.4316 118.148 30.1591 117.309 30.1591C115.619 30.1591 113.912 31.0799 113.912 32.7992C113.912 34.3682 115.289 35.3829 116.837 35.3829C118.016 35.3829 118.677 34.8567 119.083 34.2366H119.139V35.148H120.838V30.6477C120.847 28.5619 119.29 27.3969 117.271 27.3969ZM117.054 33.8326C116.478 33.8326 115.676 33.5414 115.676 32.8368C115.676 31.9348 116.676 31.5872 117.544 31.5872C118.318 31.5872 118.686 31.7563 119.149 31.9818C119.017 33.0622 118.073 33.8326 117.054 33.8326ZM127.037 27.6506L125.018 32.7428H124.961L122.866 27.6506H120.97L124.112 34.7722L122.319 38.7275H124.159L129 27.6506H127.037ZM111.184 35.1668H112.949V23.4228H111.184V35.1668Z" fill="#2B2D33"/>
<path d="M33.4687 28.3946L29.7813 24.7071L18.1791 36.3093C18.5862 36.4888 19.0745 36.4913 19.5166 36.2426L33.4687 28.3946Z" fill="#2B2D33"/>
<path d="M34.3738 27.8855L38.957 25.3074C39.9765 24.7339 39.9765 23.2661 38.957 22.6927L34.3738 20.1146L30.4884 24L34.3738 27.8855Z" fill="#2B2D33"/>
<path d="M33.4687 19.6055L19.5166 11.7574C19.0745 11.5087 18.5862 11.5113 18.1791 11.6908L29.7813 23.2929L33.4687 19.6055Z" fill="#2B2D33"/>
<path d="M17.4476 12.3734L29.0742 24L17.4476 35.6266C17.342 35.4233 17.2812 35.1897 17.2812 34.9353V13.0648C17.2812 12.8103 17.342 12.5767 17.4476 12.3734Z" fill="#2B2D33"/>
<path d="M49.414 12.365H50.458C50.566 11.825 51.025 11.519 51.682 11.519C52.33 11.519 52.762 11.861 52.762 12.401C52.762 12.914 52.42 13.292 51.682 13.292H50.863V14.228H51.772C52.483 14.228 52.996 14.507 52.996 15.155C52.996 15.758 52.528 16.145 51.772 16.145C50.98 16.145 50.521 15.758 50.413 15.236H49.351C49.468 16.406 50.413 17.108 51.772 17.108C53.149 17.108 54.085 16.316 54.085 15.173C54.085 14.237 53.383 13.787 52.96 13.679C53.401 13.526 53.851 13.049 53.851 12.329C53.851 11.285 52.996 10.556 51.691 10.556C50.548 10.556 49.531 11.177 49.414 12.365ZM57.7876 13.958V14.219H56.6716C55.5286 14.219 54.8266 14.759 54.8266 15.668C54.8266 16.568 55.5286 17.108 56.4196 17.108C57.0136 17.108 57.5176 16.883 57.8416 16.478V17H58.7956V13.976C58.7956 12.905 58.0486 12.302 56.9236 12.302C55.7986 12.302 55.1416 12.932 55.0066 13.679H55.9786C56.0776 13.391 56.3566 13.148 56.8876 13.148C57.4006 13.148 57.7876 13.418 57.7876 13.958ZM56.6446 16.271C56.1856 16.271 55.8616 16.046 55.8616 15.632C55.8616 15.218 56.2216 14.993 56.7436 14.993H57.7876V15.272C57.7876 15.893 57.2566 16.271 56.6446 16.271ZM63.1509 13.31V12.41H60.0009V17H61.0269V13.31H63.1509ZM66.4734 12.302C65.7444 12.302 65.2764 12.635 65.0514 13.004V12.41H64.0614V18.719H65.0874V16.487C65.3034 16.82 65.7714 17.108 66.4464 17.108C67.5354 17.108 68.5074 16.28 68.5074 14.705C68.5074 13.13 67.5444 12.302 66.4734 12.302ZM66.2754 16.199C65.5464 16.199 65.0604 15.623 65.0604 14.723V14.687C65.0604 13.787 65.5464 13.211 66.2754 13.211C66.9954 13.211 67.4724 13.814 67.4724 14.705C67.4724 15.605 66.9954 16.199 66.2754 16.199ZM72.3844 12.41L71.1784 15.695L69.9724 12.41H68.8654L70.6294 16.919L69.9184 18.719H71.0164L73.4914 12.41H72.3844ZM73.988 13.697H74.969C75.05 13.382 75.347 13.148 75.833 13.148C76.274 13.148 76.571 13.346 76.571 13.697C76.571 14.057 76.301 14.264 75.824 14.264H75.203V15.074H75.878C76.436 15.074 76.733 15.254 76.733 15.632C76.733 16.037 76.391 16.262 75.869 16.262C75.374 16.262 75.005 16.046 74.906 15.65H73.907C74.024 16.577 74.807 17.108 75.869 17.108C76.985 17.108 77.759 16.532 77.759 15.677C77.759 14.993 77.264 14.696 76.913 14.615C77.237 14.48 77.579 14.183 77.579 13.616C77.579 12.815 76.85 12.302 75.887 12.302C74.915 12.302 74.087 12.788 73.988 13.697ZM82.825 12.41H81.835L79.756 15.47V12.41H78.748V17H79.738L81.817 13.949V17H82.825V12.41ZM83.7053 13.31H85.1723V17H86.1983V13.31H87.6653V12.41H83.7053V13.31ZM92.395 15.002V14.579C92.395 13.193 91.576 12.302 90.316 12.302C89.02 12.302 88.111 13.22 88.111 14.714C88.111 16.199 89.02 17.108 90.379 17.108C91.63 17.108 92.224 16.343 92.341 15.758H91.333C91.261 15.965 90.946 16.253 90.397 16.253C89.659 16.253 89.164 15.713 89.164 15.02V15.002H92.395ZM90.307 13.157C90.946 13.157 91.342 13.562 91.369 14.228H89.173C89.236 13.58 89.659 13.157 90.307 13.157ZM95.3329 17H97.4839C98.5279 17 99.0949 16.433 99.0949 15.695C99.0949 15.065 98.6989 14.696 98.2669 14.579C98.5999 14.453 98.9059 14.129 98.9059 13.598C98.9059 12.932 98.4199 12.41 97.3939 12.41H95.3329V17ZM97.3579 15.038C97.8259 15.038 98.0689 15.245 98.0689 15.614C98.0689 15.983 97.8259 16.208 97.3579 16.208H96.3409V15.038H97.3579ZM97.2679 13.202C97.6819 13.202 97.8979 13.382 97.8979 13.724C97.8979 14.057 97.6729 14.264 97.2679 14.264H96.3409V13.202H97.2679Z" fill="#2B2D33"/>
<path d="M34.8469 28.9979C38.1974 27.1411 40.7377 25.7265 40.9566 25.6166C41.6568 25.2406 42.3803 24.2458 40.9566 23.4731C40.497 23.2301 38.0221 21.8593 34.8469 20.0918L30.4453 24.5778L34.8466 28.9979H34.8469Z" fill="#FFD900"/>
<path d="M30.4453 24.5771L16.4297 38.8324C16.7584 38.8764 17.1299 38.7883 17.568 38.5454C18.4873 38.0377 28.2327 32.6665 34.847 28.9983L30.4453 24.5771Z" fill="#F43249"/>
<path d="M30.4434 24.578L34.8447 20.1138C34.8447 20.1138 18.5519 11.1407 17.5659 10.6112C17.1949 10.3886 16.7786 10.3227 16.4062 10.3886L30.4434 24.5777V24.578Z" fill="#00EE76"/>
<path d="M30.4441 24.5778L16.4067 10.3887C15.837 10.5215 15.3555 11.0295 15.3555 12.0678V37.1532C15.3555 38.1042 15.7281 38.789 16.4283 38.8549L30.4439 24.5776L30.4441 24.5778Z" fill="#00D3FF"/>
<rect x="0.5" y="0.5" width="144" height="47" rx="7.5" stroke="#545966"/>
</svg>

<svg width="145" height="48" fill="none" xmlns="http://www.w3.org/2000/svg"><rect x=".5" y=".5" width="144" height="47" rx="7.5" fill="#F8F8F8"/><path d="M74.572 27.416c-2.217 0-4.03 1.681-4.03 3.993 0 2.302 1.813 3.993 4.03 3.993 2.218 0 4.03-1.691 4.03-3.993 0-2.311-1.812-3.993-4.03-3.993zm0 6.417c-1.217 0-2.265-.996-2.265-2.424 0-1.438 1.048-2.424 2.265-2.424s2.265.986 2.265 2.424c0 1.428-1.048 2.424-2.265 2.424zm-8.794-6.417c-2.218 0-4.03 1.681-4.03 3.993 0 2.302 1.812 3.993 4.03 3.993 2.217 0 4.029-1.691 4.029-3.993 0-2.311-1.803-3.993-4.03-3.993zm0 6.417c-1.218 0-2.265-.996-2.265-2.424 0-1.438 1.047-2.424 2.265-2.424 1.217 0 2.264.986 2.264 2.424 0 1.428-1.047 2.424-2.264 2.424zm-10.456-5.186v1.69H59.4c-.123.95-.444 1.654-.925 2.133-.594.592-1.52 1.24-3.142 1.24-2.51 0-4.473-2.01-4.473-4.51 0-2.498 1.963-4.509 4.473-4.509 1.35 0 2.34.526 3.066 1.212l1.199-1.193c-1.02-.968-2.369-1.71-4.275-1.71C51.888 23 49 25.781 49 29.21c0 3.42 2.888 6.21 6.322 6.21 1.86 0 3.256-.6 4.35-1.738 1.123-1.118 1.472-2.696 1.472-3.964a5.1 5.1 0 00-.094-1.062h-5.728v-.01zm42.756 1.315c-.33-.893-1.35-2.546-3.435-2.546-2.067 0-3.784 1.616-3.784 3.993 0 2.236 1.698 3.993 3.982 3.993a3.98 3.98 0 003.34-1.767l-1.368-.911c-.453.667-1.076 1.109-1.972 1.109-.896 0-1.538-.404-1.944-1.212l5.37-2.208-.19-.451zm-5.473 1.334c-.048-1.54 1.198-2.33 2.094-2.33.699 0 1.293.348 1.491.845l-3.585 1.485zm-4.36 3.87h1.765V23.424h-1.765v11.744zm-2.887-6.858H85.3c-.396-.47-1.151-.892-2.114-.892-2.01 0-3.85 1.757-3.85 4.011 0 2.236 1.84 3.984 3.85 3.984.953 0 1.718-.423 2.114-.911h.057v.573c0 1.531-.821 2.349-2.142 2.349-1.076 0-1.746-.77-2.02-1.42l-1.538.64C80.102 37.703 81.272 39 83.216 39c2.066 0 3.812-1.212 3.812-4.162V27.66h-1.67v.648zm-2.02 5.525c-1.217 0-2.236-1.015-2.236-2.405 0-1.41 1.019-2.434 2.236-2.434 1.199 0 2.142 1.034 2.142 2.433 0 1.391-.943 2.406-2.142 2.406zm23.006-10.41h-4.218v11.744h1.764v-4.454h2.463c1.953 0 3.869-1.409 3.869-3.645 0-2.236-1.934-3.645-3.878-3.645zm.037 5.656h-2.5v-4.03h2.5a2.04 2.04 0 012.067 2.01c0 .92-.745 2.02-2.067 2.02zm10.89-1.682c-1.274 0-2.595.564-3.142 1.794l1.566.649c.33-.649.953-.865 1.604-.865.906 0 1.84.545 1.85 1.513v.122a3.958 3.958 0 00-1.84-.45c-1.69 0-3.397.92-3.397 2.64 0 1.568 1.377 2.583 2.925 2.583 1.179 0 1.84-.526 2.246-1.146h.056v.911h1.699v-4.5c.009-2.086-1.548-3.251-3.567-3.251zm-.217 6.436c-.576 0-1.378-.292-1.378-.996 0-.902 1-1.25 1.868-1.25.774 0 1.142.17 1.605.395-.132 1.08-1.076 1.85-2.095 1.85zm9.983-6.182l-2.019 5.092h-.057l-2.095-5.092h-1.896l3.142 7.121-1.793 3.956h1.84L129 27.65h-1.963zm-15.853 7.516h1.765V23.423h-1.765v11.744zm-77.715-6.772l-3.688-3.688L18.18 36.31c.407.18.896.182 1.338-.066l13.952-7.848zm.905-.509l4.583-2.579a1.5 1.5 0 000-2.614l-4.583-2.578L30.488 24l3.886 3.886zm-.905-8.281l-13.952-7.848a1.482 1.482 0 00-1.338-.066l11.602 11.602 3.688-3.688zm-16.021-7.232L29.074 24 17.448 35.627a1.49 1.49 0 01-.167-.692v-21.87c0-.255.061-.488.167-.692zm31.966-.008h1.044c.108-.54.567-.846 1.224-.846.648 0 1.08.342 1.08.882 0 .513-.342.891-1.08.891h-.819v.936h.909c.711 0 1.224.279 1.224.927 0 .603-.468.99-1.224.99-.792 0-1.251-.387-1.359-.909h-1.062c.117 1.17 1.062 1.872 2.421 1.872 1.377 0 2.313-.792 2.313-1.935 0-.936-.702-1.386-1.125-1.494.441-.153.891-.63.891-1.35 0-1.044-.855-1.773-2.16-1.773-1.143 0-2.16.621-2.277 1.809zm8.374 1.593v.261h-1.116c-1.143 0-1.845.54-1.845 1.449 0 .9.702 1.44 1.593 1.44.594 0 1.098-.225 1.422-.63V17h.954v-3.024c0-1.071-.747-1.674-1.872-1.674s-1.782.63-1.917 1.377h.972c.099-.288.378-.531.909-.531.513 0 .9.27.9.81zm-1.143 2.313c-.46 0-.783-.225-.783-.639 0-.414.36-.639.882-.639h1.044v.279c0 .621-.531.999-1.143.999zm6.506-2.961v-.9H60V17h1.026v-3.69h2.124zm3.322-1.008c-.729 0-1.197.333-1.422.702v-.594h-.99v6.309h1.026v-2.232c.216.333.684.621 1.36.621 1.088 0 2.06-.828 2.06-2.403 0-1.575-.963-2.403-2.034-2.403zm-.198 3.897c-.729 0-1.215-.576-1.215-1.476v-.036c0-.9.486-1.476 1.215-1.476.72 0 1.197.603 1.197 1.494 0 .9-.477 1.494-1.197 1.494zm6.11-3.789l-1.207 3.285-1.206-3.285h-1.107l1.764 4.509-.71 1.8h1.097l2.475-6.309h-1.107zm1.603 1.287h.981c.081-.315.378-.549.864-.549.441 0 .738.198.738.549 0 .36-.27.567-.747.567h-.621v.81h.675c.558 0 .855.18.855.558 0 .405-.342.63-.864.63-.495 0-.864-.216-.963-.612h-.999c.117.927.9 1.458 1.962 1.458 1.116 0 1.89-.576 1.89-1.431 0-.684-.495-.981-.846-1.062.324-.135.666-.432.666-.999 0-.801-.729-1.314-1.692-1.314-.972 0-1.8.486-1.899 1.395zm8.837-1.287h-.99l-2.079 3.06v-3.06h-1.008V17h.99l2.079-3.051V17h1.008v-4.59zm.88.9h1.467V17h1.026v-3.69h1.467v-.9h-3.96v.9zm8.69 1.692v-.423c0-1.386-.819-2.277-2.079-2.277-1.296 0-2.205.918-2.205 2.412 0 1.485.909 2.394 2.268 2.394 1.251 0 1.845-.765 1.962-1.35h-1.008c-.072.207-.387.495-.936.495-.738 0-1.233-.54-1.233-1.233v-.018h3.231zm-2.088-1.845c.639 0 1.035.405 1.062 1.071h-2.196c.063-.648.486-1.071 1.134-1.071zM95.333 17h2.15c1.045 0 1.612-.567 1.612-1.305 0-.63-.396-.999-.828-1.116.333-.126.639-.45.639-.981 0-.666-.486-1.188-1.512-1.188h-2.061V17zm2.025-1.962c.468 0 .71.207.71.576s-.242.594-.71.594H96.34v-1.17h1.017zm-.09-1.836c.414 0 .63.18.63.522 0 .333-.225.54-.63.54h-.927v-1.062h.927z" fill="#2B2D33"/><path d="M34.847 28.998c3.35-1.857 5.89-3.271 6.11-3.381.7-.376 1.423-1.371 0-2.144-.46-.243-2.935-1.614-6.11-3.381l-4.402 4.486 4.402 4.42z" fill="#FFD900"/><path d="M30.445 24.577L16.43 38.832c.328.044.7-.044 1.138-.287.92-.507 10.665-5.879 17.279-9.547l-4.402-4.42z" fill="#F43249"/><path d="M30.443 24.578l4.402-4.464s-16.293-8.973-17.28-9.503c-.37-.222-.786-.288-1.159-.222l14.037 14.189z" fill="#00EE76"/><path d="M30.444 24.578l-14.037-14.19c-.57.133-1.052.642-1.052 1.68v25.085c0 .951.373 1.636 1.073 1.702l14.016-14.277z" fill="#00D3FF"/><rect x=".5" y=".5" width="144" height="47" rx="7.5" stroke="#545966"/></svg>
